src/assets/outline/Shapes1.svg

<svg width="24" height="24" viewBox="0 0 24 24"  xmlns="http://www.w3.org/2000/svg">
<path d="M11.7202 22.75H7.22021C3.07021 22.75 1.22021 20.9 1.22021 16.75V12.25C1.22021 8.1 3.07021 6.25 7.22021 6.25H11.7202C15.8702 6.25 17.7202 8.1 17.7202 12.25V16.75C17.7202 20.9 15.8702 22.75 11.7202 22.75ZM7.22021 7.75C3.90021 7.75 2.72021 8.93 2.72021 12.25V16.75C2.72021 20.07 3.90021 21.25 7.22021 21.25H11.7202C15.0402 21.25 16.2202 20.07 16.2202 16.75V12.25C16.2202 8.93 15.0402 7.75 11.7202 7.75H7.22021Z" />
<path d="M16.9702 13.7198C16.7802 13.7198 16.6002 13.6498 16.4602 13.5198C16.3002 13.3798 16.2202 13.1798 16.2202 12.9698V12.2498C16.2202 8.92977 15.0402 7.74977 11.7202 7.74977H11.0002C10.7902 7.74977 10.5902 7.65977 10.4502 7.50977C10.3102 7.34977 10.2402 7.14977 10.2602 6.93977C10.5502 3.69977 13.2202 1.25977 16.4802 1.25977C19.6002 1.25977 22.2602 3.58977 22.6602 6.67977C22.7002 6.91977 22.7302 7.20977 22.7302 7.50977C22.7302 10.7698 20.2902 13.4398 17.0502 13.7298C17.0202 13.7198 17.0002 13.7198 16.9702 13.7198ZM11.8902 6.24977C15.8602 6.29977 17.6702 8.09977 17.7202 12.0798C19.7602 11.5398 21.2202 9.68977 21.2202 7.49977C21.2202 7.28977 21.2002 7.08977 21.1702 6.89977C20.8602 4.51977 18.8402 2.74977 16.4702 2.74977C14.2802 2.74977 12.4402 4.20977 11.8902 6.24977Z" />
</svg>

<?xml version="1.0" encoding="UTF-8"?>
<svg width="24" height="24" viewBox="0 0 24 24" xmlns="http://www.w3.org/2000/svg">
 <path d="m11.72 22.75h-4.5c-4.15 0-6-1.85-6-6v-4.5c0-4.15 1.85-6 6-6h4.5c4.15 0 6 1.85 6 6v4.5c0 4.15-1.85 6-6 6zm-4.5-15c-3.32 0-4.5 1.18-4.5 4.5v4.5c0 3.32 1.18 4.5 4.5 4.5h4.5c3.32 0 4.5-1.18 4.5-4.5v-4.5c0-3.32-1.18-4.5-4.5-4.5h-4.5z"/>
 <path d="m16.97 13.72c-0.19 0-0.37-0.07-0.51-0.2-0.16-0.14-0.24-0.34-0.24-0.55v-0.72c0-3.32-1.18-4.5-4.5-4.5h-0.72c-0.21 0-0.41-0.09-0.55-0.24-0.14-0.16-0.21-0.36-0.19-0.57 0.29-3.24 2.96-5.68 6.22-5.68 3.12 0 5.78 2.33 6.18 5.42 0.04 0.24 0.07 0.53 0.07 0.83 0 3.26-2.44 5.93-5.68 6.22-0.03-0.01-0.05-0.01-0.08-0.01zm-5.08-7.47c3.97 0.05 5.78 1.85 5.83 5.83 2.04-0.54 3.5-2.39 3.5-4.58 0-0.21-0.02-0.41-0.05-0.6-0.31-2.38-2.33-4.15-4.7-4.15-2.19 0-4.03 1.46-4.58 3.5z"/>
</svg>
